!!!COM: Robert Franz
!!!CNT: Deutscher
!!!TXO: Deutsche 
!!!OTL: "Es hat die Rose sich beklagt"
!!!OPS: Op. 42
!!!ONM: No. 5
!!!ONB: Original key: Original key
!!!LYR: Mirza Schaffy
!!!ENC: Brian Bice
!!!YOR: Vocal Album, G. Schirmer, Inc., 1907
!!!ODT: 1845/
!!NB: Vocal melody and text only encoded.
**kern	**silbe
*clefG2	*
*k[b-e-a-d-g-]	*
*M2/4	*
=2	=2
4r	.
16r	.
{16e-	{Es
16f	hat
16g-	die
=3	=3
8f	Ro-
8e-	-se
(8b-	sich
16a-)	|
16g-	be-
=4	=4
(8f	-klagt,
8a-)}	|}
16r	.
{16d-	{dass
(fq	gar
16e-)	|
16d-	zu
=5	=5
8b-	schnell
8a-	der
8g-	Duft
8f	ver-
=6	=6
8e-	-ge-
8g-}	-he,}
16r	.
{16f	{den
16g-	ihr
16a-	der
=7	=7
(8b-	Lenz
16ff)	|
16ee-	ge-
8dd-	-ge-
8cc	-ben
=8	=8
8ee-	ha-
8dd-}	-be.}
4r	.
=10	=10
4r	.
16r	.
{16e-	{Da
16f	hab'
16g-	ich
=11	=11
8f	ihr
8e-	zum
(8b-	Trost
16a-)	|
16g-	ge-
=12	=12
(8f	-sagt,
8a-)}	|}
16r	.
{16d-	{dass
(fq	er
16e-)	|
16d-	durch
=13	=13
8b-	mei-
8a-	-ne
8g-	Lie-
8f	-der
=14	=14
8e-	we-
8g-}	-he,}
16r	.
{16f	{und
16g-	dort
16a-	ein
=15	=15
(8b-	ew'-
16ff)	|
16ee-	-ges
8dd-	Le-
8cc	-ben
=16	=16
8ee-	ha-
8dd-}	-be.}
4r	.
*-	*-
